library/css/icons/svgs/fi-layout.svg

<svg xmlns="http://www.w3.org/2000/svg" width="100" height="100" viewBox="0 0 100 100"><g fill="#231F20"><path d="M27.725 30.515h44.55v23.113h-44.55zM28.793 58.615h11.074v10.87h-11.074zM60.915 58.615h11.074v10.87h-11.074zM44.854 58.615h11.074v10.87h-11.074zM82.69 15.588h-65.38000000000001c-2.491 0-4.512 2.02-4.512 4.512h-.001v60.067h.028c.14 2.366 2.085 4.246 4.485 4.246h65.38c2.401 0 4.344-1.88 4.484-4.246h.027v-60.067c.001-2.493-2.019-4.512-4.511-4.512zm-5.428 58.885h-54.524v-48.946h54.525v48.946z"/></g></svg>

<?xml version="1.0" encoding="utf-8"?>
<!-- Generator: Adobe Illustrator 17.0.0, SVG Export Plug-In . SVG Version: 6.00 Build 0)  -->
<!DOCTYPE svg PUBLIC "-//W3C//DTD SVG 1.1//EN" "http://www.w3.org/Graphics/SVG/1.1/DTD/svg11.dtd">
<svg version="1.1" id="Layer_1" xmlns="http://www.w3.org/2000/svg" xmlns:xlink="http://www.w3.org/1999/xlink" x="0px" y="0px"
	 width="100px" height="100px" viewBox="0 0 100 100" enable-background="new 0 0 100 100" xml:space="preserve">
<g>
	<rect x="27.725" y="30.515" fill="#231F20" width="44.55" height="23.113"/>
	<rect x="28.793" y="58.615" fill="#231F20" width="11.074" height="10.87"/>
	<rect x="60.915" y="58.615" fill="#231F20" width="11.074" height="10.87"/>
	<rect x="44.854" y="58.615" fill="#231F20" width="11.074" height="10.87"/>
	<path fill="#231F20" d="M82.69,15.588L82.69,15.588H17.311h-0.001c-2.491,0-4.512,2.02-4.512,4.512h-0.001v60.067h0.028
		c0.14,2.366,2.085,4.246,4.485,4.246h0h0H82.69c2.401,0,4.344-1.88,4.484-4.246h0.027V20.1
		C87.202,17.607,85.182,15.588,82.69,15.588z M77.262,74.473H22.738V25.527h54.525V74.473z"/>
</g>
</svg>
